X: 78
T:Polka de Mirepoix
M:2/4
L:1/4
O:France
K:G
DG FE|DB BA/2B/2|cA AG/2A/2|1Bc d2:|2BA G2|
|:dB BG/2B/2|dB BG/2B/2|cA AG/2A/2|1Bc d2:|2BA G2||
W:
W: From "Falaleiro" http://home.t-online.de/home/pheld/homepage.htm

